!!!COM:	la Rue, Pierre de
!!!CDT:	~1452///-1518/11/20
!!!OPR:	Missa De Sancto Antonio
!!!ONM:	2
!!!OTL:	Gloria
!!!AGN:	Mass; Gloria
!!!SCT:	Rue1012b
!!!SCA:	Rue1012b
!!!voices:	4
!!!voices-OPR:	4
**kern	**kern	**kern	**kern
*staff4	*staff3	*staff2	*staff1
*Ivox	*Ivox	*Ivox	*Ivox
*I"Bassus	*I"Tenor	*I"Contra	*I"Discantus
*I'B	*I'T	*I'C	*I'D
*>[A,B]	*>[A,B]	*>[A,B]	*>[A,B]
*>A	*>A	*>A	*>A
*clefF4	*clefGv2	*clefGv2	*clefG2
*k[]	*k[]	*k[]	*k[]
*M3/1	*M3/1	*M3/1	*M3/1
*met(O)	*met(O)	*met(O)	*met(O)
!!section: Et in terra pax
!!!OMD: Et in terra pax
=1-	=1-	=1-	=1-
0E	0.r	0B	0.r
1F	.	1d	.
=2	=2	=2	=2
2E\	0.r	1e	0e
2A\	.	.	.
2G\	.	1.g	.
2c\	.	.	.
2B\	.	.	1g
2e\	.	4f\	.
.	.	4e\	.
=3	=3	=3	=3
2d\	0.r	2f\	1a
2.c\	.	1a	.
.	.	.	1.cc
4B\	.	.	.
4A\	.	1g	.
4G\	.	.	.
1A	.	.	.
.	.	2f#i\	4b\
.	.	.	4a/
=4	=4	=4	=4
1G	0.r	1g	2b\
.	.	.	1dd
1r	.	2d\	.
.	.	4e\	2cc\
.	.	4f\	.
1G	.	4g\	4b\
.	.	4f\	4a/
.	.	4e\	4g/
.	.	4d\	4f/
=5	=5	=5	=5
2A\	0.r	2c\	2e/
2D\	.	2f\	2a/
2E\	.	2e\	2g/
2F\	.	2a\	2cc\
2G\	.	2g\	2b\
2A\	.	2c\	2ee\
=6	=6	=6	=6
2B\	0.r	1r	2.dd\
2c\	.	.	.
.	.	.	4cc\
2.d\	.	1r	2b\
.	.	.	2a/
4c\	.	.	.
4B\	.	2r	2.dd\
4A\	.	.	.
[2d\	.	[2f\	.
.	.	.	4cc\
=7	=7	=7	=7
4d\]	0.r	2f\]	4b\
4c\	.	.	4a/
4B\	.	2f\	2.dd\
4A\	.	.	.
2G\	.	2.g\	.
.	.	.	4cc\
2c\	.	.	4b\
.	.	4f\	4a/
2B\	.	4e\	2g/
.	.	4d\	.
2A\	.	2c\	2cc\
=8	=8	=8	=8
2G\	0.r	1d	2b\
2F\	.	.	2a/
2E\	.	2e\	2g/
2D\	.	4A/	1a
.	.	4B\	.
1E	.	4c\	.
.	.	4d\	.
.	.	2B\	2g#i/
=9	=9	=9	=9
2r	0.c	1A	1a
2.F\	.	.	.
.	.	2r	2r
4E\	.	.	.
2.C/	.	2e\	2.cc\
.	.	2.e\	.
4D\	.	.	4b\
4E\	.	.	[2g/
4F\	.	4e\	.
=10	=10	=10	=10
2G\	0.B	1d	4g/]
.	.	.	4a/
1G	.	.	4b\
.	.	.	4cc\
.	.	1g	1dd
4F\	.	.	.
4E\	.	.	.
1D	.	1f	1dd
=11	=11	=11	=11
0C	1.c	2.e\	2ee\
.	.	.	1ee
.	.	4f\	.
.	.	2g\	.
.	4B\	2.a\	4dd\
.	4A/	.	4cc\
1r	1B	.	1dd
.	.	4g\	.
.	.	2g\	.
=12	=12	=12	=12
1F	0A	2.a\	0cc
.	.	4g\	.
2F\	.	2f\	.
2F\	.	2e\	.
1G	1r	1d	1r
=13	=13	=13	=13
2.A\	0.A	0c	1cc
4G\	.	.	.
2F\	.	.	2cc\
2E\	.	.	2cc\
1D	.	1r	1dd
=14	=14	=14	=14
1C	0c	2.g\	2.ee\
.	.	8f\L	4dd\
.	.	8g\J	.
1r	.	2a\	2cc\
.	.	1g	2b\
1r	1d	.	1a
.	.	2f\	.
=15	=15	=15	=15
1c	0e	1g	2g/
.	.	.	1cc
2A\	.	2a\	.
2c\	.	2.g\	2cc\
2G\	1d	.	2b\
.	.	4f\	.
2B\	.	4d\	2g/
.	.	4e\	.
=16	=16	=16	=16
2.A\	2.c\	2f\	2a/
.	.	2.e\	1cc
4B\	4d\	.	.
2c\	2e\	.	.
.	.	4f\	.
2G\	1d	2.g\	2b\
2B\	.	.	2g/
.	.	4f\	.
[2A\	[2c\	4e\	[2a/
.	.	4d\	.
=17	=17	=17	=17
2A\]	4c\]	2c\	4a/]
.	4A/	.	4g/
2D\	1d	2B\	2.b\
1E	.	1G	.
.	.	.	4a/
.	2c\	.	1g
1D	1d	1A	.
.	.	.	2f#i/
=18	=18	=18	=18
2r	0.r	4G/	0g
.	.	4A/	.
1G	.	4B\	.
.	.	4c\	.
.	.	4d\	.
.	.	4e\	.
4F\	.	1c	.
4E\	.	.	.
1D	.	.	1r
.	.	2B\	.
=19	=19	=19	=19
0.C	0.e	0c	1g
.	.	.	2g/
.	.	.	1g
.	.	1r	.
.	.	.	2g/
=20	=20	=20	=20
0F	0f	1c	0a
.	.	2c\	.
.	.	1c	.
1A	1f	.	1a
.	.	2c\	.
=21	=21	=21	=21
0G	1g	2d\	1.b
.	.	2d\	.
.	2g\	1B	.
.	2g\	.	2g/
1C	2.e\	1c	1g
.	4d\	.	.
=22	=22	=22	=22
1r	2c\	2r	2r
.	4B\	1e	1g
.	4A/	.	.
1E	1B	.	.
.	.	2e\	2g/
2.F\	1A	1c	2a/
.	.	.	[2cc\
4G\	.	.	.
=23	=23	=23	=23
4A\	0.r	2c\	4cc\]
4G\	.	.	4b\
4F\	.	1d	4a/
4E\	.	.	4g/
2F\	.	.	2a/
4E\	.	2G/	4g/
4C/	.	.	4e/
2D\	.	2r	2f/
[2C/	.	2c\	[2e/
=24	=24	=24	=24
2C/]	0.r	4B\	2e/]
.	.	4G/	.
2C/	.	2A/	2cc\
2G\	.	2G/	4b\
.	.	.	4g/
4F\	.	2r	2a/
4D\	.	.	.
2E\	.	2g\	2g/
2D\	.	4f\	2dd\
.	.	4d\	.
=25	=25	=25	=25
2r	0.r	2e\	4cc\
.	.	.	4a/
1G	.	1d	1b
4F\	.	2d\	2.a/
4D\	.	.	.
1E	.	4c\	.
.	.	4A/	4g#i/
.	.	2B\	2g#i/
=26	=26	=26	=26
2r	[0.c	0.A	1a
2.A\	.	.	.
.	.	.	2r
4B\	.	.	.
2.c\	.	.	2.a/
4B\	.	.	4b\
4A\	.	.	[2cc\
4G\	.	.	.
=27	=27	=27	=27
2F\	0c]	2r	4cc\]
.	.	.	4b\
2.F\	.	2.A/	4a/
.	.	.	4g/
.	.	.	2f/
4E\	.	4B\	.
2C/	.	1c	2e/
1G	1d	.	1d
.	.	2B\	.
=28	=28	=28	=28
2r	0e	2.c\	0c
1C	.	.	.
.	.	4B\	.
.	.	2A/	.
2E\	.	2G/	.
2D\	1f	1d	1r
2F\	.	.	.
=29	=29	=29	=29
2C/	2e\	1G	0.r
2E\	2c\	.	.
2D\	1d	1r	.
2F\	.	.	.
2C/	2e\	1r	.
2E\	2c\	.	.
=30	=30	=30	=30
2D\	2d\	1r	0.r
2.A\	2.f\	.	.
.	.	1r	.
4G\	4e\	.	.
4F\	1e	.	.
4E\	.	.	.
1F	.	1A	.
.	2d\	.	.
=31	=31	=31	=31
0E	0.e	2B\	1.g
.	.	2.c\	.
.	.	4B\	.
.	.	2B\	2g/
1r	.	2A/	2a/
.	.	[2e\	[2cc\
=32	=32	=32	=32
0.r	0.r	4e\]	4cc\]
.	.	4d\	4b\
.	.	2d\	2b\
.	.	2.c\	2a/
.	.	.	2.ee\
.	.	8B/L	.
.	.	8A/J	.
.	.	1G	.
.	.	.	4dd\
.	.	.	2dd\
=33	=33	=33	=33
1r	0.r	2r	2cc\
.	.	2c\	4b\
.	.	.	4a/
2r	.	2B\	2g/
2.A\	.	2A/	2.cc\
.	.	2c\	.
4G\	.	.	4b\
2G\	.	2d\	2b\
=34	=34	=34	=34
2F\	0.r	4d\	2.a/
.	.	2c\	.
4E\	.	.	.
4D\	.	4B\	8g/L
.	.	.	8f/J
2C/	.	1c	1e
2.c\	.	.	.
.	.	1r	2e/
4B\	.	.	.
2B\	.	.	2d/
=35	=35	=35	=35
2.A\	0.r	0.r	2e/
.	.	.	2f/
8G\L	.	.	.
8F\J	.	.	.
2E\	.	.	2g/
2G\	.	.	2.e/
1F	.	.	.
.	.	.	4d/
.	.	.	2d/
=36	=36	=36	=36
0E	[0.e	2r	0e
.	.	2B\	.
.	.	2c\	.
.	.	2B\	.
2r	.	2c\	2r
2E\	.	4B\	2b\
.	.	4A/	.
=37	=37	=37	=37
2E\	0.e]	1G	2b\
2E\	.	.	2b\
2A\	.	2.c\	2cc\
4G\	.	.	4b\
4F\	.	4d\	4a/
2E\	.	4e\	2g/
.	.	4f\	.
2C/	.	[2g\	2cc\
=38	=38	=38	=38
2G\	0d	2g\]	2b\
2F\	.	2d\	1a
1D	.	1f	.
.	.	.	4g/
.	.	.	4f/
2r	1c	2e\	2a/
[2A\	.	2c\	2e/
=39	=39	=39	=39
4A\]	2r	2r	2r
4G\	.	.	.
2A\	2c\	2.A/	2e/
2D\	2d\	.	2f/
.	.	4B\	.
2A\	2c\	2c\	2e/
2F\	2d\	2A/	2f/
2G\	4e\	2B\	[2e/
.	4f\	.	.
=40	=40	=40	=40
2C/	4g\	2G/	2e/]
.	4e\	.	.
2D\	2f\	2B\	2d/
2r	1e	2c\	4e/
.	.	.	4f/
2C/	.	2G/	4g/
.	.	.	4e/
2D\	2d\	2r	2f/
[2C/	[2e\	[2g\	2e/
=41	=41	=41	=41
2C/]	2e\]	1g]	2.cc\
1G	1d	.	.
.	.	.	4b\
.	.	2g\	4b\
.	.	.	4a/
2B\	1d	2.g\	2.dd\
1A	.	.	.
.	.	4f\	4b\
.	2c\	2f\	2cc\
=42	=42	=42	=42
0G	1d	1g	2b\
.	.	.	1g
.	2r	2r	.
.	2d\	2.g\	2dd\
2G\	2.e\	.	2b\
.	.	4f\	.
[2A\	.	2e\	[2cc\
.	4d\	.	.
=43	=43	=43	=43
4A\]	4c\	2.a\	4cc\]
4G\	4B\	.	4a/
4F\	1A	.	1dd
4E\	.	4g\	.
2D\	.	4f\	.
.	.	4e\	.
2E\	2G/	1e	4cc\
.	.	.	4b\
1F	1A	.	1a
.	.	2d\	.
=44	=44	=44	=44
0.El	1B	0.el	0.gl
.	1c	.	.
.	1Bl	.	.
!!LO:LB:i:g=z
=45||	=45||	=45||	=45||
*>B	*>B	*>B	*>B
*clefF4	*clefGv2	*clefGv2	*clefG2
*k[]	*k[]	*k[]	*k[]
*M2/1	*M2/1	*M2/1	*M2/1
*met(C|)	*met(C|)	*met(C|)	*met(C|)
!!section: Qui tollis
!!!OMD: Qui tollis
0r	0r	0B	0r
=46	=46	=46	=46
1r	0r	1d	0r
[1E	.	1e	.
=47	=47	=47	=47
1E]	0r	1.B	1r
1G	.	.	[1e
.	.	[2e\	.
=48	=48	=48	=48
1A	[0c	2e\]	1e]
.	.	2.c\	.
1E	.	.	1g
.	.	4d\	.
.	.	2e\	.
=49	=49	=49	=49
0A	0c_	2f\	1a
.	.	1e	.
.	.	.	1e
.	.	4d\	.
.	.	4c\	.
=50	=50	=50	=50
1F	0c_	1f	1a
1c	.	[1e	1g
=51	=51	=51	=51
1.C	0c]	2e\]	1.cc
.	.	4d\	.
.	.	4c\	.
.	.	[1g	.
2D\	.	.	4b\
.	.	.	4a/
=52	=52	=52	=52
2E\	[0B	2g\]	1.g
2F\	.	4f\	.
.	.	4e\	.
[1G	.	[1d	.
.	.	.	2a/
=53	=53	=53	=53
2G\]	0B]	1d]	2b\
4F\	.	.	2cc\
4E\	.	.	.
1D	.	1d	1dd
=54	=54	=54	=54
2.C/	0c	2.e\	1g
4D\	.	4f\	.
2E\	.	2g\	2g/
[2F\	.	[2f\	[2a/
=55	=55	=55	=55
4F\]	1c	2f\]	2a/]
4G\	.	.	.
2A\	.	2e\	2cc\
2G\	1d	2g\	2b\
2D\	.	[2a\	[2dd\
=56	=56	=56	=56
1A	1e	2a\]	2dd\]
.	.	2a\	2cc\
2E\	2e\	2.g\	4b\
.	.	.	4a/
[2G\	[2d\	.	[2b\
.	.	4f\	.
=57	=57	=57	=57
4G\]	4d\]	2e\	2b\]
4A\	4c\	.	.
2F\	4B\	2d\	1a
.	4A/	.	.
1E	1B	1e	.
.	.	.	2g#i/
=58	=58	=58	=58
1r	[0A	1r	1a
2.A\	.	2r	2r
.	.	[2c\	[2e/
4B\	.	.	.
=59	=59	=59	=59
2c\	0A_	2c\]	2e/]
2F\	.	1d	1f
2D\	.	.	.
[2A\	.	4c\	4e/
.	.	4B\	4d/
=60	=60	=60	=60
2A\]	0A_	2c\	2e/
2D\	.	2d\	2f/
2AA/	.	2c\	2e/
[2D\	.	[2d\	[2f/
=61	=61	=61	=61
2D\]	0A]	2d\]	2f/]
2C/	.	2e\	2.e/
1D	.	1f	.
.	.	.	4d/
.	.	.	2d/
=62	=62	=62	=62
1r	[0c	0e	[0e
[1A	.	.	.
=63	=63	=63	=63
1A]	0c]	0r	0e]
1A	.	.	.
=64	=64	=64	=64
1B	0d	0r	0r
2B\	.	.	.
[2G\	.	.	.
=65	=65	=65	=65
4G\]	1d	0r	0r
4A\	.	.	.
2B\	.	.	.
2c\	1e	.	.
[2A\	.	.	.
=66	=66	=66	=66
2A\]	2e\	0r	0r
2.A\	2.c\	.	.
4B\	4d\	.	.
2c\	2e\	.	.
=67	=67	=67	=67
1d	2f\	0r	0r
.	1d	.	.
2G\	.	.	.
[2B\	[2d\	.	.
=68	=68	=68	=68
4B\]	4d\]	0r	0r
4c\	4e\	.	.
2A\	2f\	.	.
2G\	1g	.	.
[2c\	.	.	.
=69	=69	=69	=69
4c\]	1c	0r	0r
4B\	.	.	.
4A\	.	.	.
4G\	.	.	.
2F\	1f	.	.
[2G\	.	.	.
=70	=70	=70	=70
4G\]	2e\	1r	0r
4F\	.	.	.
4E\	2.d\	.	.
4D\	.	.	.
1E	.	1e	.
.	4c#i\	.	.
.	2c#i\	.	.
=71	=71	=71	=71
0D	0d	1f	1r
.	.	1f	1a
=72	=72	=72	=72
0r	0r	2.g\	1b
.	.	4f\	.
.	.	2d\	1b
.	.	[2e\	.
=73	=73	=73	=73
0r	0r	2e\]	2.cc\
.	.	2f\	.
.	.	.	4b\
.	.	2e\	2g/
.	.	[2f\	[2a/
=74	=74	=74	=74
0r	0r	4f\]	4a/]
.	.	4e\	4g/
.	.	1e	2e/
.	.	.	1f
.	.	2d\	.
=75	=75	=75	=75
[0A	[0c	0e	0e
=76	=76	=76	=76
1A]	1c]	0r	1r
1A	1c	.	1e
=77	=77	=77	=77
0B	0d	0r	1g
.	.	.	1g
=78	=78	=78	=78
0A	1e	1c	1a
.	1c	2e\	1cc
.	.	2f\	.
=79	=79	=79	=79
2.G\	[0d	1g	2b\
.	.	.	2.dd\
4A\	.	.	.
4B\	.	2g\	.
4c\	.	.	4cc\
[2d\	.	[2f\	4b\
.	.	.	4a/
=80	=80	=80	=80
4d\]	0d]	2f\]	2b\
4c\	.	.	.
4B\	.	2e\	1a
4A\	.	.	.
1B	.	1d	.
.	.	.	2g#i/
=81	=81	=81	=81
0A	[0e	1c	1a
.	.	2r	2r
.	.	2c\	2cc\
=82	=82	=82	=82
1r	0e]	2c\	2a/
.	.	2.c\	1cc
1A	.	.	.
.	.	4d\	.
.	.	4e\	4b\
.	.	4f\	4a/
=83	=83	=83	=83
2G\	0r	2.g\	2b\
1E	.	.	1g
.	.	4f\	.
.	.	2e\	.
2G\	.	2d\	2b\
=84	=84	=84	=84
2F\	0r	1f	2a/
2D\	.	.	2f/
2F\	.	2d\	2a/
2E\	.	[2e\	[2g/
=85	=85	=85	=85
2C/	0r	2e\]	2g/]
2E\	.	2c\	4f/
.	.	.	4e/
2D\	.	2d\	2f/
2F\	.	[2A/	[2d/
=86	=86	=86	=86
1E	0r	2A/]	2d/]
.	.	2G/	2c/
1D	.	2B\	2d/
.	.	[2A/	[2f/
=87	=87	=87	=87
1r	0A	4A/]	4f/]
.	.	4G/	4e/
.	.	4F/	1e
.	.	4E/	.
1D	.	1F	.
.	.	.	2d/
=88	=88	=88	=88
2G\	[0B	1E	1e
2G\	.	.	.
2G\	.	2r	2r
2G\	.	2E/	2e/
=89	=89	=89	=89
0E	0B]	2G/	2e/
.	.	2G/	2e/
.	.	1E	2g/
.	.	.	2g/
=90	=90	=90	=90
1r	[0c	1A	1e
1C	.	1G	2r
.	.	.	[2e/
=91	=91	=91	=91
2.C/	0c]	0r	4e/]
.	.	.	4f/
.	.	.	2g/
4D\	.	.	.
2E\	.	.	2e/
[2F\	.	.	[2a/
=92	=92	=92	=92
2F\]	1c	0r	2a/]
2E\	.	.	2g/
2F\	1c	.	2a/
[2A\	.	.	[2cc\
=93	=93	=93	=93
2A\]	0d	1r	2cc\]
4G\	.	.	4b\
4F\	.	.	4a/
1G	.	1g	2b\
.	.	.	2g/
=94	=94	=94	=94
2G\	1d	2g\	1dd
2B\	.	2g\	.
1A	1e	2.a\	2r
.	.	.	2cc\
.	.	4g\	.
=95	=95	=95	=95
2r	1d	4f\	2dd\
.	.	4e\	.
2G\	.	1g	2b\
1A	2r	.	1cc
.	2c\	2f\	.
=96	=96	=96	=96
1G	2d\	1g	1b
.	2B\	.	.
1A	1c	1r	2r
.	.	.	2cc\
=97	=97	=97	=97
1G	1B	2r	2dd\
.	.	1g	2b\
1A	2r	.	1cc
.	2c\	2f\	.
=98	=98	=98	=98
1G	2d\	2g\	1b
.	2B\	2e\	.
2E\	1c	2g\	2g/
2F\	.	2f\	[2a/
=99	=99	=99	=99
1G	2B\	0d	4a/]
.	.	.	4g/
.	2G/	.	1g
1D	1A	.	.
.	.	.	2f#i/
=100	=100	=100	=100
1r	[0G	1B	0g
[1E	.	2B\	.
.	.	[2c\	.
=101	=101	=101	=101
1E]	0G]	2c\]	1r
.	.	4B\	.
.	.	4A/	.
1G	.	1B	1g
=102	=102	=102	=102
1F	1r	1A	1a
1A	1c	1f	1a
=103	=103	=103	=103
1G	1d	1g	0b
1B	1d	1g	.
=104	=104	=104	=104
0A	0e	0c	1.cc
.	.	.	4b\
.	.	.	4a/
=105	=105	=105	=105
[0D	1.f	1.d	1a
.	.	.	2r
.	4e\	4e\	2a/
.	4d\	4f\	.
=106	=106	=106	=106
0D_	0d	2g\	2b-i\
.	.	1f	1a
.	.	4e\	4g/
.	.	4d\	4f/
=107	=107	=107	=107
0D]	1r	0f	2b-i\
.	.	.	1a
.	1d	.	.
.	.	.	4g/
.	.	.	4f/
=108	=108	=108	=108
1C	1e	1g	2cc\
.	.	.	4b\
.	.	.	4a/
1E	1e	1g	1g
=109	=109	=109	=109
0D	0f	0a	1.dd
.	.	.	2dd\
=110	=110	=110	=110
1r	1e	1g	1cc
1G	1d	1g	1b
=111	=111	=111	=111
2A\	1c	2e\	1a
2F\	.	2f\	.
2G\	2B\	2d\	1g
2C/	[2e\	4c\	.
.	.	4B\	.
=112	=112	=112	=112
1D	4e\]	1A	1f
.	4d\	.	.
.	2d\	.	.
2r	1e	2r	1e
[2G\	.	[2B\	.
=113	=113	=113	=113
2G\]	0r	2B\]	2r
2F\	.	2A/	1a
2D\	.	2F/	.
[2E\	.	[2G/	2g/
=114	=114	=114	=114
2E\]	2r	2G/]	2e/
1A	1c	1F	2.f/
.	.	.	4e/
2G\	2B\	[2G/	[2e/
=115	=115	=115	=115
2E\	2G/	2G/]	2e/]
1F	1A	2F/	1cc
.	.	2A/	.
2G\	[2G/	2B\	2b\
=116	=116	=116	=116
2E\	2G/]	1c	2g/
1F	1f	.	2.a/
.	.	2d\	.
.	.	.	4g/
2C/	2e\	[2e\	2g/
=117	=117	=117	=117
2E\	2c\	2e\]	2e/
2D\	1d	2A/	2.f/
2BB/	.	2B\	.
.	.	.	4e/
2C/	[2c\	2G/	2e/
=118	=118	=118	=118
1G	2c\]	1g	1d
.	2B\	.	.
2r	1c	1e	1c
2C/	.	.	.
=119	=119	=119	=119
2D\	2r	2f\	1r
2E\	2c\	2e\	.
2F\	4d\	2r	2r
.	2.e\	.	.
2E\	.	2e\	2g/
=120	=120	=120	=120
2r	2f\	2d\	2a/
2E\	1e	2g\	2b\
2A\	.	2.a\	2cc\
2D\	[2d\	.	[2b\
.	.	4g\	.
=121	=121	=121	=121
1F	4d\]	2f\	4b\]
.	4c\	.	4a/
.	4B\	2d\	1a
.	4A/	.	.
1E	1B	1e	.
.	.	.	2g#i/
=122	=122	=122	=122
1r	[0Al	[0el	[0al
1AA	.	.	.
=123	=123	=123	=123
0AAl	0A]	0e]	0a]
==	==	==	==
*-	*-	*-	*-
!!!RDF**kern: l=long note in original notation
!!!RDF**kern: i=editorial accidental
!!!ENC:	Chris Gage 01-07-2013
!!!END:	2013/07/15/
!!!EED:	Jesse Rodin
!!!EEV:	2013/07/19/
!!!ONB:	Translated from MusicXML and edited on 2013/07/19/ by Craig Sapp
!!muse2ps: T^@{OPR}^u^@{ONM}{. }@{OTL}^C^@{COM}^i2I150v85,85,85,150Q16
